svg/part/love_line.svg

<?xml version="1.0" encoding="UTF-8"?>
<svg width="24px" height="24px" viewBox="0 0 24 24" version="1.1" xmlns="http://www.w3.org/2000/svg" xmlns:xlink="http://www.w3.org/1999/xlink">
    <title>love_line</title>
    <g id="Icon" stroke="none" stroke-width="1" fill="none" fill-rule="evenodd">
        <g id="Part" transform="translate(-480.000000, -192.000000)">
            <g id="love_line" transform="translate(480.000000, 192.000000)">
                <path d="M24,0 L24,24 L0,24 L0,0 L24,0 Z M12.5935,23.2578 L12.5819,23.2595 L12.5109,23.295 L12.4919,23.2987 L12.4767,23.295 L12.4057,23.2595 C12.3958,23.2564 12.387,23.259 12.3821,23.2649 L12.378,23.2758 L12.3609,23.7031 L12.3659,23.7235 L12.3769,23.7357 L12.4805,23.8097 L12.4953,23.8136 L12.5071,23.8097 L12.6107,23.7357 L12.6233,23.7197 L12.6267,23.7031 L12.6096,23.2758 C12.6076,23.2657 12.601,23.2593 12.5935,23.2578 Z M12.8584,23.1453 L12.8445,23.1473 L12.6598,23.2397 L12.6499,23.2499 L12.6472,23.2611 L12.6651,23.6906 L12.6699,23.7034 L12.6784,23.7105 L12.8793,23.8032 C12.8914,23.8069 12.9022,23.803 12.9078,23.7952 L12.9118,23.7812 L12.8777,23.1665 C12.8753,23.1546 12.8674,23.147 12.8584,23.1453 Z M12.143,23.1473 C12.1332,23.1424 12.1222,23.1453 12.1156,23.1526 L12.1099,23.1665 L12.0758,23.7812 C12.0751,23.7927 12.0828,23.8019 12.0926,23.8046 L12.1083,23.8032 L12.3092,23.7105 L12.3186,23.7024 L12.3225,23.6906 L12.3404,23.2611 L12.3372,23.2485 L12.3278,23.2397 L12.143,23.1473 Z" id="MingCute" fill-rule="nonzero"></path>
                <path d="M14.125,19.9715 C13.903,20.1358 13.6624,20.2716 13.3972,20.3426 C12.6506,20.5427 11.8357,20.244 11.1239,20.0438 C6.35085,18.7011 3.1542,16.5982 2.23729,13.4595 C1.50529,10.9538 2.20935,8.44428 3.75716,6.8842 C5.19069,5.4393 7.31697,4.85304 9.4984,5.79219 C10.918,3.88815 13.0525,3.33273 15.0165,3.86728 C17.1369,4.44445 19.0014,6.26571 19.6204,8.80174 C19.7417,9.29877 19.8019,9.80572 19.8028,10.3208 C20.0584,10.4513 20.2999,10.6127 20.523,10.8014 C21.6795,11.7797 22.298,13.4432 21.953,15.1722 C21.5128,17.3782 19.4681,18.9274 16.5435,20.0332 C16.0416,20.223 15.4942,20.4582 14.9467,20.3617 C14.6429,20.3081 14.3714,20.1515 14.125,19.9715 Z M4.15705,12.8987 C3.62178,11.0664 4.15986,9.31797 5.17695,8.29282 C6.15269,7.30934 7.59985,6.9434 9.20039,7.87932 C9.75859,8.20572 10.4798,8.01246 10.8,7.45069 C11.7182,5.8399 13.1544,5.43322 14.4912,5.79707 C15.8846,6.17634 17.2248,7.42149 17.6774,9.27594 C17.7319,9.49911 17.7688,9.72723 17.7878,9.96083 C17.4366,10.0046 17.0807,10.1033 16.7274,10.2625 C15.6533,9.21546 14.2307,9.00865 12.9765,9.47076 C11.5551,9.99447 10.4049,11.3462 10.1378,13.0889 C9.86418,14.8737 10.7069,16.6145 12.2759,18.2868 C12.0784,18.2364 11.8731,18.1769 11.6655,18.1185 C7.03459,16.8158 4.76622,14.984 4.15705,12.8987 Z M12.1147,13.3919 C12.2755,12.3427 12.9536,11.6106 13.668,11.3474 C14.3272,11.1045 15.0605,11.2315 15.6182,12.0375 C15.967,12.5414 16.6626,12.6641 17.1627,12.3098 C17.9625,11.7432 18.6949,11.8747 19.2313,12.3284 C19.8126,12.82 20.1994,13.7399 19.9917,14.7809 C19.7662,15.9106 18.6227,17.1089 15.8362,18.1624 C15.6591,18.2294 15.4827,18.3006 15.3008,18.3536 C15.1479,18.2415 15.0065,18.1143 14.863,17.9908 C12.6049,16.0478 11.9401,14.5306 12.1147,13.3919 Z" id="形状" fill="#09244B"></path>
            </g>
        </g>
    </g>
</svg>

<svg xmlns="http://www.w3.org/2000/svg" width="24" height="24"><g fill="none" fill-rule="evenodd"><path d="M24 0v24H0V0h24ZM12.594 23.258l-.012.002-.071.035-.02.004-.014-.004-.071-.036c-.01-.003-.019 0-.024.006l-.004.01-.017.428.005.02.01.013.104.074.015.004.012-.004.104-.074.012-.016.004-.017-.017-.427c-.002-.01-.009-.017-.016-.018Zm.264-.113-.014.002-.184.093-.01.01-.003.011.018.43.005.012.008.008.201.092c.012.004.023 0 .029-.008l.004-.014-.034-.614c-.003-.012-.01-.02-.02-.022Zm-.715.002a.023.023 0 0 0-.027.006l-.006.014-.034.614c0 .012.007.02.017.024l.015-.002.201-.093.01-.008.003-.011.018-.43-.003-.012-.01-.01-.184-.092Z"/><path fill="#09244B" d="M14.125 19.972c-.222.164-.463.3-.728.37-.746.2-1.561-.098-2.273-.298-4.773-1.343-7.97-3.446-8.887-6.584-.732-2.506-.028-5.016 1.52-6.576 1.434-1.445 3.56-2.031 5.741-1.092 1.42-1.904 3.555-2.46 5.519-1.925 2.12.577 3.984 2.399 4.603 4.935.122.497.182 1.004.183 1.519.255.13.497.292.72.48 1.157.979 1.775 2.642 1.43 4.371-.44 2.206-2.485 3.755-5.41 4.861-.501.19-1.049.425-1.596.329-.304-.054-.576-.21-.822-.39Zm-9.968-7.073c-.535-1.833.003-3.581 1.02-4.606.976-.984 2.423-1.35 4.023-.414.559.327 1.28.133 1.6-.428.918-1.611 2.354-2.018 3.691-1.654 1.394.38 2.734 1.624 3.186 3.479.055.223.092.451.11.685a3.687 3.687 0 0 0-1.06.301c-1.074-1.047-2.496-1.253-3.75-.791-1.422.523-2.572 1.875-2.84 3.618-.273 1.785.57 3.525 2.139 5.198-.198-.05-.403-.11-.61-.168-4.631-1.303-6.9-3.135-7.509-5.22Zm7.958.493c.16-1.05.839-1.781 1.553-2.045.66-.242 1.393-.115 1.95.69a1.104 1.104 0 0 0 1.545.273c.8-.567 1.532-.435 2.068.018.582.492.968 1.412.76 2.453-.225 1.13-1.368 2.328-4.155 3.381-.177.067-.353.139-.535.192-.153-.113-.294-.24-.438-.363-2.258-1.943-2.923-3.46-2.748-4.6Z"/></g></svg>
